X:732
T:Cawdor Fair
S:Memory
Z:Nigel Gatherer
L:1/4
M:4/4
K:D
dcBA | d2 F2 | ABAF | A2 A2 |
dcBA | d2 F2 | EFGA | B3 z  |
Addd | d2 d2 | Beee | e3 z  |
fedc | dcBA  | Bdce | d3 z ||
